assets/uml/004-vpc/vpc-domain-model.svg

<?xml version="1.0" encoding="us-ascii" standalone="no"?><svg xmlns="http://www.w3.org/2000/svg" xmlns:xlink="http://www.w3.org/1999/xlink" contentStyleType="text/css" height="688.6458px" preserveAspectRatio="none" style="width:365px;height:688px;background:#FFFFFF;" version="1.1" viewBox="0 0 365 688" width="365.5208px" zoomAndPan="magnify"><defs/><g><!--class VPC--><g id="elem_VPC"><rect codeLine="8" fill="#FFFFFF" height="73.0491" id="VPC" rx="4.5833" ry="4.5833" style="stroke:#2688D4;stroke-width:0.5729166666666666;" width="146.6667" x="107.7083" y="186.2896"/><ellipse cx="123.75" cy="222.8141" fill="#ADD1B2" rx="11.4583" ry="11.4583" style="stroke:#181818;stroke-width:1.1458333333333333;"/><path d="M125.8514,227.6817 Q125.3815,227.9234 124.8645,228.0442 Q124.3475,228.1651 123.7769,228.1651 Q121.7493,228.1651 120.6818,226.829 Q119.6143,225.493 119.6143,222.9686 Q119.6143,220.4374 120.6818,219.1014 Q121.7493,217.7653 123.7769,217.7653 Q124.3475,217.7653 124.8712,217.8862 Q125.3949,218.007 125.8514,218.2487 L125.8514,220.4509 Q125.3412,219.9809 124.8611,219.7627 Q124.3811,219.5445 123.8708,219.5445 Q122.7832,219.5445 122.2293,220.4072 Q121.6754,221.27 121.6754,222.9686 Q121.6754,224.6605 122.2293,225.5232 Q122.7832,226.3859 123.8708,226.3859 Q124.3811,226.3859 124.8611,226.1677 Q125.3412,225.9495 125.8514,225.4795 Z " fill="#000000"/><text fill="#000000" font-family="Verdana" font-size="13.75" lengthAdjust="spacing" textLength="26.3542" x="181.6146" y="211.5718">VPC</text><text fill="#000000" font-family="Verdana" font-size="13.75" lengthAdjust="spacing" textLength="100.8333" x="144.375" y="228.2826">(virtual private</text><text fill="#000000" font-family="Verdana" font-size="13.75" lengthAdjust="spacing" textLength="41.25" x="174.1667" y="244.9934">cloud)</text></g><!--class CIDR--><g id="elem_CIDR"><rect codeLine="11" fill="#FFFFFF" height="89.7599" id="CIDR" rx="4.5833" ry="4.5833" style="stroke:#2688D4;stroke-width:0.5729166666666666;" width="129.4792" x="228.5937" y="592.9688"/><ellipse cx="244.6354" cy="637.8487" fill="#ADD1B2" rx="11.4583" ry="11.4583" style="stroke:#181818;stroke-width:1.1458333333333333;"/><path d="M246.7369,642.7163 Q246.2669,642.958 245.7499,643.0788 Q245.233,643.1997 244.6623,643.1997 Q242.6347,643.1997 241.5672,641.8636 Q240.4997,640.5275 240.4997,638.0031 Q240.4997,635.472 241.5672,634.1359 Q242.6347,632.7999 244.6623,632.7999 Q245.233,632.7999 245.7566,632.9207 Q246.2803,633.0416 246.7369,633.2833 L246.7369,635.4854 Q246.2266,635.0155 245.7466,634.7973 Q245.2665,634.5791 244.7563,634.5791 Q243.6686,634.5791 243.1147,635.4418 Q242.5608,636.3045 242.5608,638.0031 Q242.5608,639.695 243.1147,640.5578 Q243.6686,641.4205 244.7563,641.4205 Q245.2665,641.4205 245.7466,641.2023 Q246.2266,640.9841 246.7369,640.5141 Z " fill="#000000"/><text fill="#000000" font-family="Verdana" font-size="13.75" lengthAdjust="spacing" textLength="34.375" x="289.8958" y="618.2509">CIDR</text><text fill="#000000" font-family="Verdana" font-size="13.75" lengthAdjust="spacing" textLength="65.3125" x="274.4271" y="634.9618">(Classless</text><text fill="#000000" font-family="Verdana" font-size="13.75" lengthAdjust="spacing" textLength="83.6458" x="265.2604" y="651.6726">Inter-Domai</text><text fill="#000000" font-family="Verdana" font-size="13.75" lengthAdjust="spacing" textLength="58.4375" x="277.8646" y="668.3834">Routing)</text></g><!--class AvZone--><g id="elem_AvZone"><rect codeLine="14" fill="#FFFFFF" height="56.3383" id="AvZone" rx="4.5833" ry="4.5833" style="stroke:#2688D4;stroke-width:0.5729166666666666;" width="118.0208" x="10.8854" y="397.9938"/><ellipse cx="26.9271" cy="426.1629" fill="#ADD1B2" rx="11.4583" ry="11.4583" style="stroke:#181818;stroke-width:1.1458333333333333;"/><path d="M29.0285,431.0305 Q28.5586,431.2722 28.0416,431.393 Q27.5246,431.5139 26.9539,431.5139 Q24.9264,431.5139 23.8588,430.1778 Q22.7913,428.8417 22.7913,426.3173 Q22.7913,423.7862 23.8588,422.4501 Q24.9264,421.1141 26.9539,421.1141 Q27.5246,421.1141 28.0483,421.2349 Q28.572,421.3558 29.0285,421.5975 L29.0285,423.7996 Q28.5183,423.3296 28.0382,423.1114 Q27.5582,422.8932 27.0479,422.8932 Q25.9603,422.8932 25.4064,423.756 Q24.8525,424.6187 24.8525,426.3173 Q24.8525,428.0092 25.4064,428.8719 Q25.9603,429.7347 27.0479,429.7347 Q27.5582,429.7347 28.0382,429.5165 Q28.5183,429.2983 29.0285,428.8283 Z " fill="#000000"/><text fill="#000000" font-family="Verdana" font-size="13.75" lengthAdjust="spacing" textLength="72.1875" x="47.5521" y="423.2759">Availability</text><text fill="#000000" font-family="Verdana" font-size="13.75" lengthAdjust="spacing" textLength="34.375" x="66.4583" y="439.9868">Zone</text></g><!--class Region--><g id="elem_Region"><rect fill="#FFFFFF" height="39.6275" id="Region" rx="4.5833" ry="4.5833" style="stroke:#2688D4;stroke-width:0.5729166666666666;" width="91.6667" x="135.2083" y="8.0208"/><ellipse cx="151.25" cy="27.8346" fill="#ADD1B2" rx="11.4583" ry="11.4583" style="stroke:#181818;stroke-width:1.1458333333333333;"/><path d="M153.3514,32.7021 Q152.8815,32.9438 152.3645,33.0647 Q151.8475,33.1855 151.2769,33.1855 Q149.2493,33.1855 148.1818,31.8495 Q147.1143,30.5134 147.1143,27.989 Q147.1143,25.4579 148.1818,24.1218 Q149.2493,22.7857 151.2769,22.7857 Q151.8475,22.7857 152.3712,22.9066 Q152.8949,23.0274 153.3514,23.2691 L153.3514,25.4713 Q152.8412,25.0013 152.3611,24.7831 Q151.8811,24.5649 151.3708,24.5649 Q150.2832,24.5649 149.7293,25.4277 Q149.1754,26.2904 149.1754,27.989 Q149.1754,29.6809 149.7293,30.5436 Q150.2832,31.4064 151.3708,31.4064 Q151.8811,31.4064 152.3611,31.1882 Q152.8412,30.97 153.3514,30.5 Z " fill="#000000"/><text fill="#000000" font-family="Verdana" font-size="13.75" lengthAdjust="spacing" textLength="45.8333" x="171.875" y="33.303">Region</text></g><!--class Subnet--><g id="elem_Subnet"><rect fill="#FFFFFF" height="39.6275" id="Subnet" rx="4.5833" ry="4.5833" style="stroke:#2688D4;stroke-width:0.5729166666666666;" width="95.1042" x="24.6354" y="618.0396"/><ellipse cx="40.6771" cy="637.8533" fill="#ADD1B2" rx="11.4583" ry="11.4583" style="stroke:#181818;stroke-width:1.1458333333333333;"/><path d="M42.7785,642.7209 Q42.3086,642.9626 41.7916,643.0834 Q41.2746,643.2043 40.7039,643.2043 Q38.6764,643.2043 37.6088,641.8682 Q36.5413,640.5322 36.5413,638.0077 Q36.5413,635.4766 37.6088,634.1406 Q38.6764,632.8045 40.7039,632.8045 Q41.2746,632.8045 41.7983,632.9253 Q42.322,633.0462 42.7785,633.2879 L42.7785,635.49 Q42.2683,635.0201 41.7882,634.8019 Q41.3082,634.5837 40.7979,634.5837 Q39.7103,634.5837 39.1564,635.4464 Q38.6025,636.3091 38.6025,638.0077 Q38.6025,639.6996 39.1564,640.5624 Q39.7103,641.4251 40.7979,641.4251 Q41.3082,641.4251 41.7882,641.2069 Q42.2683,640.9887 42.7785,640.5187 Z " fill="#000000"/><text fill="#000000" font-family="Verdana" font-size="13.75" lengthAdjust="spacing" textLength="49.2708" x="61.3021" y="643.3218">Subnet</text></g><!--link Region to VPC--><g id="link_Region_VPC"><path codeLine="17" d="M181.0417,47.9646 C181.0417,80.4604 181.0417,138.0958 181.0417,179.025 " fill="none" id="Region-to-VPC" style="stroke:#2688D4;stroke-width:1.1458333333333333;"/><polygon fill="#2688D4" points="181.0417,185.9,185.625,175.5875,181.0417,180.1708,176.4583,175.5875,181.0417,185.9" style="stroke:#2688D4;stroke-width:1.1458333333333333;"/><text fill="#000000" font-family="Verdana" font-size="13.75" lengthAdjust="spacing" textLength="9.1667" x="163.5033" y="76.2851">1</text><text fill="#000000" font-family="Verdana" font-size="13.75" lengthAdjust="spacing" textLength="9.1667" x="164.18" y="168.3589">5</text></g><!--link VPC to CIDR--><g id="link_VPC_CIDR"><path codeLine="18" d="M241.4844,259.6458 C241.4844,335.7292 241.4844,503.1469 241.4844,585.8417 " fill="none" id="VPC-to-CIDR" style="stroke:#2688D4;stroke-width:1.1458333333333333;"/><polygon fill="#2688D4" points="241.4844,592.7167,246.0677,582.4042,241.4844,586.9875,236.901,582.4042,241.4844,592.7167" style="stroke:#2688D4;stroke-width:1.1458333333333333;"/><text fill="#000000" font-family="Verdana" font-size="13.75" lengthAdjust="spacing" textLength="9.1667" x="235.2047" y="287.9501">1</text><text fill="#000000" font-family="Verdana" font-size="13.75" lengthAdjust="spacing" textLength="9.1667" x="216.2931" y="575.0728">5</text></g><!--reverse link Subnet to CIDR--><g id="link_Subnet_CIDR"><path codeLine="19" d="M127.05,638.0458 C158.675,638.0458 193.6229,638.0458 228.2385,638.0458 " fill="none" id="Subnet-backto-CIDR" style="stroke:#2688D4;stroke-width:1.1458333333333333;"/><polygon fill="#2688D4" points="120.175,638.0458,130.4875,642.6292,125.9042,638.0458,130.4875,633.4625,120.175,638.0458" style="stroke:#2688D4;stroke-width:1.1458333333333333;"/><text fill="#000000" font-family="Verdana" font-size="13.75" lengthAdjust="spacing" textLength="27.5" x="134.5483" y="628.4047">0..n</text><text fill="#000000" font-family="Verdana" font-size="13.75" lengthAdjust="spacing" textLength="9.1667" x="204.6237" y="628.5705">1</text></g><!--link VPC to AvZone--><g id="link_VPC_AvZone"><path codeLine="20" d="M118.3073,259.6458 C118.3073,299.2458 118.3073,354.4865 118.3073,390.6146 " fill="none" id="VPC-to-AvZone" style="stroke:#2688D4;stroke-width:1.1458333333333333;"/><polygon fill="#2688D4" points="118.3073,397.4896,122.8906,387.1771,118.3073,391.7604,113.724,387.1771,118.3073,397.4896" style="stroke:#2688D4;stroke-width:1.1458333333333333;"/><text fill="#000000" font-family="Verdana" font-size="13.75" lengthAdjust="spacing" textLength="43.5417" x="67.8906" y="319.4749">covers</text><text fill="#000000" font-family="Verdana" font-size="13.75" lengthAdjust="spacing" textLength="9.1667" x="90.8565" y="287.9501">1</text><text fill="#000000" font-family="Verdana" font-size="13.75" lengthAdjust="spacing" textLength="27.5" x="91.4071" y="380.3357">0..n</text></g><!--link AvZone to Subnet--><g id="link_AvZone_Subnet"><path codeLine="21" d="M72.1875,454.7125 C72.1875,498.1625 72.1875,572.951 72.1875,610.7865 " fill="none" id="AvZone-to-Subnet" style="stroke:#2688D4;stroke-width:1.1458333333333333;"/><polygon fill="#2688D4" points="72.1875,617.6615,76.7708,607.349,72.1875,611.9323,67.6042,607.349,72.1875,617.6615" style="stroke:#2688D4;stroke-width:1.1458333333333333;"/><text fill="#000000" font-family="Verdana" font-size="13.75" lengthAdjust="spacing" textLength="51.5625" x="13.75" y="527.0884">belongs</text><text fill="#000000" font-family="Verdana" font-size="13.75" lengthAdjust="spacing" textLength="9.1667" x="55.6374" y="483.0588">1</text><text fill="#000000" font-family="Verdana" font-size="13.75" lengthAdjust="spacing" textLength="27.5" x="33.4798" y="600.2624">0..n</text></g><!--SRC=[PP0nJyCm48Lt_uh32p0aj4C7692gTkc6YiI0iZZ9ARNgt5ds9LA5-E_OIGGKFFdkVU_kwMuiDMve4Sho8Sh5OUc7tgbujkHDC3quIoWNZy11JlnB86uneeV7ZRhzwGP3vznThrPAs8Cmr2p2FRGsO2EMIQd6cHX1lxtiAheRRP31EF31ZaQmIdbuQEyrc0Y9W0_r-UtO7VR7PDdboc6C5Hr8C1HxxesjwCY3MEfcRsQlpDlHM6TgwwnSAdfdmedRZlaxaqViKa3GQmr5KJo3tkYSGUKSwLtrytmrBLa4DochiYGDhqETplRVDwlBoYTeUCGGrLB_nUOX2QlHCNLHVG40]--></g></svg>

<svg xmlns="http://www.w3.org/2000/svg" contentStyleType="text/css" height="688" preserveAspectRatio="none" style="background:#FFFFFF" width="365" zoomAndPan="magnify" xmlns:v="https://vecta.io/nano"><style><![CDATA[.B{fill:#000}.C{font-family:Verdana}.D{font-size:13.75px}.E{stroke:#2688d4}.F{stroke-width:1.146}.G{stroke-width:.573}.H{fill:#add1b2}.I{stroke:#181818}.J{fill:#2688d4}]]></style><rect fill="#fff" height="73.049" rx="4.583" width="146.667" x="107.708" y="186.29" class="E G"/><circle cx="123.75" cy="222.814" r="11.458" class="F H I"/><path d="M125.851 227.682q-.47.242-.987.362-.517.121-1.088.121-2.028 0-3.095-1.336-1.067-1.336-1.067-3.86 0-2.531 1.067-3.867 1.068-1.336 3.095-1.336.571 0 1.094.121.524.121.98.363v2.202q-.51-.47-.99-.688-.48-.218-.99-.218-1.088 0-1.642.863-.554.863-.554 2.561 0 1.692.554 2.555.554.863 1.642.863.51 0 .99-.218.48-.218.99-.688z"/><text lengthAdjust="spacing" textLength="26.3542" x="181.615" y="211.572" class="B C D">VPC</text><text lengthAdjust="spacing" textLength="100.8333" x="144.375" y="228.283" class="B C D">(virtual private</text><text lengthAdjust="spacing" textLength="41.25" x="174.167" y="244.993" class="B C D">cloud)</text><rect fill="#fff" height="89.76" rx="4.583" width="129.479" x="228.594" y="592.969" class="E G"/><circle cx="244.635" cy="637.849" r="11.458" class="F H I"/><path d="M246.737 642.716q-.47.242-.987.362-.517.121-1.088.121-2.028 0-3.095-1.336-1.068-1.336-1.068-3.861 0-2.531 1.068-3.867 1.067-1.336 3.095-1.336.571 0 1.094.121.524.121.98.363v2.202q-.51-.47-.99-.688-.48-.218-.99-.218-1.088 0-1.642.863-.554.863-.554 2.561 0 1.692.554 2.555.554.863 1.642.863.51 0 .99-.218.48-.218.99-.688z"/><text lengthAdjust="spacing" textLength="34.375" x="289.896" y="618.251" class="B C D">CIDR</text><text lengthAdjust="spacing" textLength="65.3125" x="274.427" y="634.962" class="B C D">(Classless</text><text lengthAdjust="spacing" textLength="83.6458" x="265.26" y="651.673" class="B C D">Inter-Domai</text><text lengthAdjust="spacing" textLength="58.4375" x="277.865" y="668.383" class="B C D">Routing)</text><rect fill="#fff" height="56.338" rx="4.583" width="118.021" x="10.885" y="397.994" class="E G"/><circle cx="26.927" cy="426.163" r="11.458" class="F H I"/><path d="M29.029 431.031q-.47.242-.987.362-.517.121-1.088.121-2.027 0-3.095-1.336-1.067-1.336-1.067-3.861 0-2.531 1.067-3.867 1.068-1.336 3.095-1.336.571 0 1.094.121.524.121.98.363v2.202q-.51-.47-.99-.688-.48-.218-.99-.218-1.088 0-1.641.863-.554.863-.554 2.561 0 1.692.554 2.555.554.863 1.641.863.51 0 .99-.218.48-.218.99-.688z"/><text lengthAdjust="spacing" textLength="72.1875" x="47.552" y="423.276" class="B C D">Availability</text><text lengthAdjust="spacing" textLength="34.375" x="66.458" y="439.987" class="B C D">Zone</text><rect fill="#fff" height="39.628" rx="4.583" width="91.667" x="135.208" y="8.021" class="E G"/><circle cx="151.25" cy="27.835" r="11.458" class="F H I"/><path d="M153.351 32.702q-.47.242-.987.363-.517.121-1.088.121-2.028 0-3.095-1.336-1.068-1.336-1.068-3.86 0-2.531 1.068-3.867 1.067-1.336 3.095-1.336.571 0 1.094.121.524.121.98.363v2.202q-.51-.47-.99-.688-.48-.218-.99-.218-1.088 0-1.642.863-.554.863-.554 2.561 0 1.692.554 2.555.554.863 1.642.863.51 0 .99-.218.48-.218.99-.688z"/><text lengthAdjust="spacing" textLength="45.8333" x="171.875" y="33.303" class="B C D">Region</text><rect fill="#fff" height="39.628" rx="4.583" width="95.104" x="24.635" y="618.04" class="E G"/><circle cx="40.677" cy="637.853" r="11.458" class="F H I"/><path d="M42.779 642.721q-.47.242-.987.362-.517.121-1.088.121-2.027 0-3.095-1.336-1.068-1.336-1.068-3.861 0-2.531 1.068-3.867 1.068-1.336 3.095-1.336.571 0 1.094.121.524.121.98.363v2.202q-.51-.47-.99-.688-.48-.218-.99-.218-1.088 0-1.642.863-.554.863-.554 2.561 0 1.692.554 2.555.554.863 1.642.863.51 0 .99-.218.48-.218.99-.688z"/><text lengthAdjust="spacing" textLength="49.2708" x="61.302" y="643.322" class="B C D">Subnet</text><g class="E F"><path d="M181.042 47.965v131.06" fill="none"/><use href="#B" class="J"/></g><text lengthAdjust="spacing" textLength="9.1667" x="163.503" y="76.285" class="B C D">1</text><text lengthAdjust="spacing" textLength="9.1667" x="164.18" y="168.359" class="B C D">5</text><g class="E F"><path d="M241.484 259.646v326.196" fill="none"/><use href="#B" x="60.442" y="406.817" class="J"/></g><text lengthAdjust="spacing" textLength="9.1667" x="235.205" y="287.95" class="B C D">1</text><text lengthAdjust="spacing" textLength="9.1667" x="216.293" y="575.073" class="B C D">5</text><g class="E F"><path d="M127.05 638.046h101.188" fill="none"/><path d="M120.175 638.046l10.313 4.583-4.583-4.583 4.583-4.583-10.313 4.583z" class="J"/></g><text lengthAdjust="spacing" textLength="27.5" x="134.548" y="628.405" class="B C D">0..n</text><text lengthAdjust="spacing" textLength="9.1667" x="204.624" y="628.571" class="B C D">1</text><g class="E F"><path d="M118.307 259.646v130.969" fill="none"/><use href="#B" x="-62.735" y="211.59" class="J"/></g><text lengthAdjust="spacing" textLength="43.5417" x="67.891" y="319.475" class="B C D">covers</text><text lengthAdjust="spacing" textLength="9.1667" x="90.857" y="287.95" class="B C D">1</text><text lengthAdjust="spacing" textLength="27.5" x="91.407" y="380.336" class="B C D">0..n</text><g class="E F"><path d="M72.188 454.713v156.074" fill="none"/><use href="#B" x="-108.854" y="431.762" class="J"/></g><text lengthAdjust="spacing" textLength="51.5625" x="13.75" y="527.088" class="B C D">belongs</text><text lengthAdjust="spacing" textLength="9.1667" x="55.637" y="483.059" class="B C D">1</text><text lengthAdjust="spacing" textLength="27.5" x="33.48" y="600.262" class="B C D">0..n</text><defs ><path id="B" d="M181.042 185.9l4.583-10.312-4.583 4.583-4.583-4.583 4.583 10.313z"/></defs></svg>
